X: 38781
T: Stump-Tailed Dolly
R: reel
M: 4/4
K: Gmajor
G2BG de~e2|dBAG EFGD|G2BG de~e2|dBAB GBBA|
G2BG de~e2|dBAG EFGD|G2BG de~e2|dBAB G2BA|
G2BG de~e2|dBAG EFGD|G2BG de~e2|dBAB GcBA|
G2BG de~e2|dBAG EFGD|G2BG de~e2|dBAB G2G2||
g2eg ~g2eg|ef~f2 afdf|g2eg g2ed|BGAF ~G3d|
~g2eg g2eg|ef~f2 afd2|bgaf g/f/e dB|GBAF ~G2G2:|

